assets/img/icon-social-linkedin.svg

<svg xmlns="http://www.w3.org/2000/svg" width="32" height="32" viewBox="0 0 32 32"><path class="icon" d="M16 0C7.2 0 0 7.2 0 16s7.2 16 16 16 16-7.2 16-16S24.8 0 16 0zm-3.2 21.2H10v-8.7h2.8v8.7zm-1.4-9.8c-.9 0-1.7-.8-1.7-1.7S10.5 8 11.4 8c.9 0 1.7.8 1.7 1.7s-.8 1.7-1.7 1.7zm12.3 9.8h-2.8v-5.5s-.3-1.1-1.4-1.1c-1.1.1-1.5.2-2 .8v5.8h-2.8v-8.7h2.8v1.3s.9-1.8 2.8-1.7c1.7.1 3 1.2 3.3 3.4h.1v5.7z"/></svg>

<svg xmlns="http://www.w3.org/2000/svg" width="32" height="32" viewBox="0 0 32 32"><path class="icon" d="M16 0C7.2 0 0 7.2 0 16c0 8.8 7.2 16 16 16 8.8 0 16-7.2 16-16C32 7.2 24.8 0 16 0zM12.8 21.2h-2.8V12.5h2.8V21.2zM11.4 11.4c-0.9 0-1.7-0.8-1.7-1.7s0.8-1.7 1.7-1.7c0.9 0 1.7 0.8 1.7 1.7S12.3 11.4 11.4 11.4zM23.7 21.2h-2.8v-5.5c0 0-0.3-1.1-1.4-1.1 -1.1 0.1-1.5 0.2-2 0.8v5.8h-2.8V12.5h2.8v1.3c0 0 0.9-1.8 2.8-1.7 1.7 0.1 3 1.2 3.3 3.4h0.1V21.2z" /></svg>
